X: 1
T: Flappers, The
M: 2/4
L: 1/8
R: polka
K: Fmaj
C/FF/ FG |  A/GA/ F2 | D/GG/ GA | B/AB/ G2 | E/cc/ cd |
c/AG/ F2 |1 A/GD/ EF | G2 c2 :|2 A/GD/ Ec | F2 f2 ||
C F2 C | D F2 D | CF FG | A F3 | B d2 f |
c A2 F |1 G>A GD | FE DC :|2 G>F GA | F2 f2 ||
C/FF/ FG |  A/GA/ F2 | D/GG/ GA | B/AB/ G2 | E/cc/ cd |
c/AG/ F2 |1 A/GD/ EF | G2 c2 :|2 A/GD/ Ec | F2 f2 ||
K:Bb
F d2 F | G e2 G | F>=E FG | F d3 | _E c2 E |
d B2 B |1 BG AB | d>c AF |2 G/A/B/c/ dc | B2 B2 ||
G/A/B/c/ d/c/B/A/ | Gg G2 | cc/d/ ec | d=B G2 |
gg/a/ bg | f/g/f/d/ B2 | GA Bc | d2 d2 ||
